src/assets/flags/sn.svg

<?xml version="1.0" encoding="UTF-8"?>
<svg xmlns="http://www.w3.org/2000/svg" xmlns:xlink="http://www.w3.org/1999/xlink" width="25px" height="px" viewBox="0 0 25 19" version="1.1">
<g id="surface1">
<path style=" stroke:none;fill-rule:evenodd;fill:rgb(4.313726%,44.705883%,14.901961%);fill-opacity:1;" d="M 0 0 L 8.332031 0 L 8.332031 19 L 0 19 Z M 0 0 "/>
<path style=" stroke:none;fill-rule:evenodd;fill:rgb(100%,100%,0%);fill-opacity:1;" d="M 8.332031 0 L 16.664062 0 L 16.664062 19 L 8.332031 19 Z M 8.332031 0 "/>
<path style=" stroke:none;fill-rule:evenodd;fill:rgb(73.725492%,0%,0%);fill-opacity:1;" d="M 16.664062 0 L 25 0 L 25 19 L 16.664062 19 Z M 16.664062 0 "/>
<path style=" stroke:none;fill-rule:nonzero;fill:rgb(4.313726%,44.705883%,14.901961%);fill-opacity:1;" d="M 13.359375 8.660156 L 16.164062 8.660156 L 13.953125 10.386719 L 14.761719 13.128906 L 12.550781 11.402344 L 10.339844 13.050781 L 11.148438 10.386719 L 8.9375 8.660156 L 11.664062 8.660156 L 12.550781 5.839844 Z M 13.359375 8.660156 "/>
</g>
</svg>

<svg xmlns="http://www.w3.org/2000/svg" width="25" height="px" viewBox="0 0 25 19"><path d="M0 0h8.332v19H0Zm0 0" style="stroke:none;fill-rule:evenodd;fill:#0b7226;fill-opacity:1"/><path d="M8.332 0h8.332v19H8.332Zm0 0" style="stroke:none;fill-rule:evenodd;fill:#ff0;fill-opacity:1"/><path d="M16.664 0H25v19h-8.336Zm0 0" style="stroke:none;fill-rule:evenodd;fill:#bc0000;fill-opacity:1"/><path d="M13.36 8.66h2.804l-2.21 1.727.808 2.742-2.211-1.727-2.211 1.649.808-2.664-2.21-1.727h2.726l.887-2.82Zm0 0" style="stroke:none;fill-rule:nonzero;fill:#0b7226;fill-opacity:1"/></svg>
